X:1
T:Partition sans titre
C:Compositeur / Arrangeur
L:1/8
M:4/4
I:linebreak $
K:D
V:1 treble nm="Violon" snm="Vln."
V:1
"D" d2 fd cdec | defd A2 dc |"G" B2 gf edcB |"A" AaaA aABc |"D" d2 fd cdec | defd A2 dc | %6
"G" B2 gf edcB |1"A" Afec"D" d2 (3ABc :|2"A" Afec"D" d2 Ad |:"D" f2 fg fedc |"G" BggB ggAc | %11
"A" e2 ef edcB | AaaA a2 Ad |"D" f2 fg fedc |"G" BggB g2 Ac |"A" e2 ef edcB |1 Afec"D" d2 Ad :|2 %17
 Afec"D" d2 (3ABc |] %18
